X: 1
T: Foxhunter's, The
C: Trad
R: Slip Jig
M: 9/8
L: 1/8
K: Dmaj
Z: ABC transcription by Verge Roller
r: 32
|: "D" FGF F2 D "G" G2 E | "D" FGF F2  D "A" E2 D | "D" FGF F2 D "G" G2 B | "D" A2 D DEF "A" E2 D :|
|: "Em" B2 B BAG "D" FGA | "Em" B2 E E2 F G2 B | "A" ABc dcB ABc | "D" d2 D DEF "A" E2 D :|
|: "D" fgf f2  d "G" g2 e | "D" fgf f2 d "A" e2 d | "D" fgf f2 d "G" g2 b | "D" afd def "A" e2 d :|
|: "Em" gfe d=cB AGA | "Em" B2 E E2 F G2 B | "A" ABc dcB ABc | "D" d2 D DEF E2 D :|
